example/source/Home_Media.svg

<?xml version="1.0" encoding="UTF-8"?>
<svg xmlns="http://www.w3.org/2000/svg" xmlns:xlink="http://www.w3.org/1999/xlink" contentScriptType="text/ecmascript" zoomAndPan="magnify" baseProfile="tiny" contentStyleType="text/css" version="1.1" width="44px" preserveAspectRatio="xMidYMid meet" viewBox="0 0 44 44" height="44px" x="0px" y="0px">
    <g>
        <rect width="43.999" fill="none" height="44"/>
    </g>
    <g>
        <path d="M 39.269 19.707 C 38.847 19.082 38.464 18.448 37.940002 17.905 C 36.093002 16.885 34.376003 15.451 32.644 14.252001 C 28.654001 11.488001 24.663002 8.724001 20.672 5.9610004 C 16.324001 8.957001 11.990001 11.974001 7.649001 14.979 C 6.287001 15.923 4.794001 16.781 3.526001 17.846 C 2.533001 18.679 1.868001 20.019001 1.151001 21.091 L 4.5490007 21.091 L 4.5490007 36.265 C 13.329 36.265 22.111 36.267 30.89 36.269 C 32.859 36.269 34.826 36.269 36.791 36.269 L 36.791 21.092 L 40.2 21.092 L 39.269 19.707 " fill-opacity="0.2"/>
        <path d="M 38.529 20.203 C 38.029 19.46 37.642998 18.794998 36.906 18.289 L 36.904 18.289 C 31.497 14.535999 26.083 10.789 20.671 7.0429993 C 16.746 9.757999 12.824999 12.478999 8.901999 15.195 C 7.6189995 16.084 6.3359995 16.972 5.0519996 17.862 C 4.6139994 18.166 4.042 18.466 3.6999996 18.887 C 3.3719995 19.293 3.1039996 19.771 2.8149996 20.203 L 5.44 20.203 L 5.44 35.377 C 14.299 35.377 23.159 35.377 32.017 35.377 C 33.311996 35.377 34.608997 35.377 35.901997 35.377 L 35.901997 20.203 L 38.529 20.203 " fill-opacity="0.4"/>
    </g>
    <g>
        <path fill="#636363" d="M 35.9 17.76 C 35.9 17.482 35.9 17.204 35.9 16.925001 L 34.698 16.925001 L 20.61 7.126 L 7.36 16.925 L 5.44 16.925 L 5.44 34.488 C 14.299999 34.488 23.159 34.488 32.019 34.488 C 33.314 34.488 34.609 34.488 35.903 34.488 L 35.903 18.587 C 36.065 18.423 36.228 18.26 36.391 18.098 L 35.9 17.76 "/>
        <linearGradient x1="188.6943" gradientTransform="matrix(1 0 0 -1 -168 -850)" y1="-883.6855" x2="188.6943" gradientUnits="userSpaceOnUse" y2="-858.1157" xlink:type="simple" xlink:actuate="onLoad" id="SVGID_1_" xlink:show="other">
            <stop stop-color="#e8e8e8" offset="0"/>
            <stop stop-color="#c9ccd9" offset="1"/>
        </linearGradient>
        <polyline fill="url(#SVGID_1_)" points="35.145,18.212 35.099,18.181 35.099,17.729 34.447,17.729 20.626,8.116 7.626,17.729    6.244,17.729 6.244,33.686 35.099,33.686 35.099,18.255 35.145,18.212  "/>
        <rect x="24.307" width="7.514" fill="#777777" y="22.729" height="7.514"/>
        <linearGradient x1="198.9297" gradientTransform="matrix(1 0 0 -1 -168 -850)" y1="-876.4849" x2="193.1953" gradientUnits="userSpaceOnUse" y2="-876.4849" xlink:type="simple" xlink:actuate="onLoad" id="SVGID_2_" xlink:show="other">
            <stop stop-color="#e8e8e8" offset="0"/>
            <stop stop-color="#c9ccd9" offset="1"/>
        </linearGradient>
        <polyline fill="url(#SVGID_2_)" points="25.196,23.619 30.931,23.619 30.931,29.352 25.196,29.352 25.196,23.619  "/>
        <polyline fill="#777777" points="31.288,26.039 28.468,26.039 28.468,23.273 27.66,23.273 27.66,26.039 24.838,26.039    24.838,26.844 27.66,26.844 27.66,29.473 28.468,29.473 28.468,26.844 31.288,26.844 31.288,26.039  "/>
        <rect x="11.224" width="8.009" fill="#513511" y="22.017" height="11.667"/>
        <linearGradient x1="183.2285" gradientTransform="matrix(1 0 0 -1 -168 -850)" y1="-882.793" x2="183.2285" gradientUnits="userSpaceOnUse" y2="-872.9082" xlink:type="simple" xlink:actuate="onLoad" id="SVGID_3_" xlink:show="other">
            <stop stop-color="#d16b07" offset="0"/>
            <stop stop-color="#9b510e" offset="1"/>
        </linearGradient>
        <polyline fill="url(#SVGID_3_)" points="12.115,22.908 18.342,22.908 18.342,32.793 12.115,32.793 12.115,22.908  "/>
        <g>
            <path fill="#513511" d="M 12.915 23.781 L 14.49 23.781 L 14.49 26.519001 L 14.473 26.519001 C 14.592 26.638 14.712 26.759 14.832 26.876001 L 14.848 26.876001 C 14.848 25.724 14.848 24.571001 14.848 23.421001 L 12.573 23.421001 C 12.7 23.531 12.816 23.652 12.915 23.781 M 14.67 26.521 L 14.67 26.699 L 14.67 26.521 z " fill-opacity="0.5"/>
            <path fill="#f4a44d" d="M 14.473 26.521 L 12.898 26.521 L 12.898 23.783 L 12.915 23.783 C 12.816 23.652 12.699 23.533 12.573 23.428001 L 12.539 23.428001 L 12.539 26.881 L 14.830999 26.881 C 14.712 26.76 14.593 26.639 14.473 26.521 " fill-opacity="0.5"/>
            <path fill="#513511" d="M 15.933 23.781 L 17.507 23.781 L 17.507 26.519001 L 17.49 26.519001 C 17.609 26.638 17.729 26.759 17.848999 26.876001 L 17.865 26.876001 C 17.865 25.724 17.865 24.571001 17.865 23.421001 L 15.589 23.421001 C 15.716 23.531 15.833 23.652 15.933 23.781 M 17.686 26.521 L 17.686 26.699 L 17.686 26.521 z " fill-opacity="0.5"/>
            <path fill="#f4a44d" d="M 17.49 26.521 L 15.914 26.521 L 15.914 23.783 L 15.933 23.783 C 15.834 23.652 15.716 23.533 15.589999 23.428001 L 15.556999 23.428001 L 15.556999 26.881 L 17.848999 26.881 C 17.729 26.76 17.609 26.639 17.49 26.521 " fill-opacity="0.5"/>
            <path fill="#513511" d="M 12.915 29.264 L 14.49 29.264 L 14.49 32.0 L 14.473 32.0 C 14.592 32.121 14.712 32.24 14.832 32.359 L 14.848 32.359 C 14.848 31.207 14.848 30.056002 14.848 28.904001 L 12.573 28.904001 C 12.7 29.012 12.816 29.135 12.915 29.264 M 14.67 32.0 L 14.67 32.182 L 14.67 32.0 z " fill-opacity="0.5"/>
            <path fill="#f4a44d" d="M 14.473 32.0 L 12.898 32.0 L 12.898 29.264 L 12.915 29.264 C 12.816 29.135 12.699 29.012 12.573 28.905 L 12.539 28.905 L 12.539 32.364002 L 14.830999 32.364002 C 14.712 32.24 14.593 32.121 14.473 32.0 " fill-opacity="0.5"/>
            <path fill="#513511" d="M 15.933 29.264 L 17.507 29.264 L 17.507 32.0 L 17.49 32.0 C 17.609 32.121 17.729 32.24 17.848999 32.359 L 17.865 32.359 C 17.865 31.207 17.865 30.056002 17.865 28.904001 L 15.589 28.904001 C 15.716 29.012 15.833 29.135 15.933 29.264 M 17.686 32.0 L 17.686 32.182 L 17.686 32.0 z " fill-opacity="0.5"/>
            <path fill="#f4a44d" d="M 17.49 32.0 L 15.914 32.0 L 15.914 29.264 L 15.933 29.264 C 15.834 29.135 15.716 29.012 15.589999 28.905 L 15.556999 28.905 L 15.556999 32.364002 L 17.848999 32.364002 C 17.729 32.24 17.609 32.121 17.49 32.0 " fill-opacity="0.5"/>
        </g>
        <polyline fill="#f9f9f9" fill-opacity="0.4" points="6.773,18.868 6.773,33.064 34.652,18.6 20.896,8.385 6.866,17.729    6.773,18.868  "/>
        <path fill="#990719" d="M 38.529 19.315 C 38.029 18.573 37.642998 17.906 36.904 17.401001 L 36.903 17.401001 C 31.496 13.649001 26.083 9.902 20.67 6.1550007 C 16.743 8.867001 12.823999 11.59 8.901 14.307001 C 7.618 15.196001 6.334 16.084002 5.051 16.974 C 4.612 17.278002 4.0420003 17.578001 3.6990001 17.999 C 3.371 18.402 3.104 18.881 2.815 19.313 L 6.91 19.313 C 11.514 16.161999 16.084 12.959999 20.67 9.783999 C 25.254 12.959 29.796001 16.210999 34.429 19.313 L 34.57 19.313 L 34.57 19.315 L 38.529 19.315 "/>
        <linearGradient x1="188.6719" gradientTransform="matrix(1 0 0 -1 -168 -850)" y1="-857.1309" x2="188.6719" gradientUnits="userSpaceOnUse" y2="-868.5112" xlink:type="simple" xlink:actuate="onLoad" id="SVGID_4_" xlink:show="other">
            <stop stop-color="#ff0000" offset="0"/>
            <stop stop-color="#a80000" offset="1"/>
        </linearGradient>
        <path fill="url(#SVGID_4_)" d="M 6.662 18.511 C 8.119 17.501 11.741 14.993 20.672 8.806999 C 25.342001 12.041999 30.017002 15.268 34.683 18.511 L 37.024 18.511 C 36.979 18.438 36.913 18.378 36.842 18.33 L 36.842 18.33 C 31.47 14.573999 26.062 10.864 20.674 7.13 C 17.131 9.584 13.587999 12.037001 10.044 14.491 C 9.089 15.153 8.134 15.815001 7.1779995 16.477 C 6.5139995 16.936998 5.8489995 17.397999 5.1849995 17.856998 C 4.9259996 18.034998 4.5029993 18.235998 4.3189993 18.508999 L 6.662 18.511 M 4.708 18.229 C 4.678 18.241 4.649 18.253 4.6200004 18.266 L 4.6200004 18.266 C 4.639 18.257 4.661 18.248 4.708 18.229 "/>
    </g>
    <g>
        <circle r="7.739" fill-opacity="0.4" cx="33.428" cy="31.176"/>
        <path d="M 25.221 31.176 C 25.223001 26.643002 28.895 22.967001 33.428 22.966 L 33.428 22.966 L 33.428 23.438 L 33.428 23.907 C 29.413002 23.907 26.157001 27.161 26.157001 31.178 L 26.157001 31.178 C 26.157001 35.193 29.413002 38.448997 33.428 38.448997 L 33.428 38.448997 C 37.444 38.449997 40.699 35.192997 40.699 31.177998 L 40.699 31.177998 C 40.699 27.159998 37.443 23.906998 33.428 23.906998 L 33.428 23.906998 L 33.428 23.437998 L 33.428 22.967999 C 37.961002 22.97 41.634003 26.642998 41.637 31.175999 L 41.637 31.175999 C 41.634003 35.709 37.961002 39.384 33.428 39.385 L 33.428 39.385 C 28.895 39.382 25.223 35.708 25.221 31.176 L 25.221 31.176 z " fill-opacity="0.2"/>
        <radialGradient gradientTransform="matrix(1 0 0 -1 -348.0039 -851.0117)" gradientUnits="userSpaceOnUse" xlink:type="simple" r="7.3477" xlink:actuate="onLoad" cx="381.4316" id="SVGID_5_" cy="-881.7188" xlink:show="other">
            <stop stop-color="#0082e2" offset="0"/>
            <stop stop-color="#25427c" offset="1"/>
        </radialGradient>
        <circle fill="url(#SVGID_5_)" r="7.348" cx="33.428" cy="30.707"/>
        <linearGradient x1="381.4854" gradientTransform="matrix(1 0 0 -1 -348.0039 -851.0117)" y1="-881.6563" x2="381.4854" gradientUnits="userSpaceOnUse" y2="-874.6055" xlink:type="simple" xlink:actuate="onLoad" id="SVGID_6_" xlink:show="other">
            <stop stop-color="#5487fc" offset="0"/>
            <stop stop-color="#c2f1ff" offset="1"/>
        </linearGradient>
        <path fill="url(#SVGID_6_)" d="M 40.531 30.656 C 40.531 26.761 37.373997 23.605 33.48 23.605 C 29.585 23.605 26.428999 26.761 26.428999 30.656 L 40.531 30.656 z "/>
        <radialGradient gradientTransform="matrix(1 0 0 -1 -736.0098 -1656.0234)" gradientUnits="userSpaceOnUse" xlink:type="simple" r="3.8318" xlink:actuate="onLoad" cx="770.832" id="SVGID_7_" cy="-1686.9141" xlink:show="other">
            <stop stop-color="#0082e2" offset="0"/>
            <stop stop-color="#25427c" offset="1"/>
        </radialGradient>
        <polygon fill="url(#SVGID_7_)" points="30.941,27.145 30.941,34.686 38.725,30.005  "/>
        <linearGradient x1="382.4961" gradientTransform="matrix(1 0 0 -1 -348.0039 -851.0117)" y1="-878.8662" x2="382.4961" gradientUnits="userSpaceOnUse" y2="-884.8301" xlink:type="simple" xlink:actuate="onLoad" id="SVGID_8_" xlink:show="other">
            <stop stop-color="#fff2fc" offset="0"/>
            <stop stop-color="#bdd0e0" offset="1"/>
        </linearGradient>
        <polygon fill="url(#SVGID_8_)" points="31.415,27.866 31.415,33.83 37.57,30.13  "/>
    </g>
</svg>

<svg xmlns="http://www.w3.org/2000/svg" xmlns:xlink="http://www.w3.org/1999/xlink" contentScriptType="text/ecmascript" baseProfile="tiny" width="44" height="44"><rect width="43.999" height="44" fill="none"/><path d="M39.269 19.707c-.422-.625-.805-1.259-1.329-1.802-1.847-1.02-3.564-2.454-5.296-3.653-3.99-2.764-7.981-5.528-11.972-8.291-4.348 2.996-8.682 6.013-13.023 9.018-1.362.944-2.855 1.802-4.123 2.867-.993.833-1.658 2.173-2.375 3.245h3.398v15.174c8.78 0 17.562.002 26.341.004h5.901v-15.177h3.409l-.931-1.385" fill-opacity=".2"/><path d="M38.529 20.203c-.5-.743-.886-1.408-1.623-1.914h-.002c-5.407-3.753-10.821-7.5-16.233-11.246-3.925 2.715-7.846 5.436-11.769 8.152l-3.85 2.667c-.438.304-1.01.604-1.352 1.025-.328.406-.596.884-.885 1.316h2.625v15.174h30.462000000000003v-15.174h2.627" fill-opacity=".4"/><path fill="#636363" d="M35.9 17.76v-.835h-1.202l-14.088-9.799-13.25 9.799h-1.92v17.563h30.463v-15.901l.488-.489-.491-.338"/><linearGradient x1="188.694" gradientTransform="matrix(1 0 0 -1 -168 -850)" y1="-883.686" x2="188.694" gradientUnits="userSpaceOnUse" y2="-858.116" xlink:type="simple" xlink:actuate="onLoad" id="a" xlink:show="other"><stop stop-color="#e8e8e8" offset="0"/><stop stop-color="#c9ccd9" offset="1"/></linearGradient><polyline fill="url(#a)" points="35.145,18.212 35.099,18.181 35.099,17.729 34.447,17.729 20.626,8.116 7.626,17.729 6.244,17.729 6.244,33.686 35.099,33.686 35.099,18.255 35.145,18.212"/><rect x="24.307" width="7.514" fill="#777" y="22.729" height="7.514"/><linearGradient x1="198.93" gradientTransform="matrix(1 0 0 -1 -168 -850)" y1="-876.485" x2="193.195" gradientUnits="userSpaceOnUse" y2="-876.485" xlink:type="simple" xlink:actuate="onLoad" id="b" xlink:show="other"><stop stop-color="#e8e8e8" offset="0"/><stop stop-color="#c9ccd9" offset="1"/></linearGradient><polyline fill="url(#b)" points="25.196,23.619 30.931,23.619 30.931,29.352 25.196,29.352 25.196,23.619"/><polyline fill="#777" points="31.288,26.039 28.468,26.039 28.468,23.273 27.66,23.273 27.66,26.039 24.838,26.039 24.838,26.844 27.66,26.844 27.66,29.473 28.468,29.473 28.468,26.844 31.288,26.844 31.288,26.039"/><rect x="11.224" width="8.009" fill="#513511" y="22.017" height="11.667"/><linearGradient x1="183.228" gradientTransform="matrix(1 0 0 -1 -168 -850)" y1="-882.793" x2="183.228" gradientUnits="userSpaceOnUse" y2="-872.908" xlink:type="simple" xlink:actuate="onLoad" id="c" xlink:show="other"><stop stop-color="#d16b07" offset="0"/><stop stop-color="#9b510e" offset="1"/></linearGradient><polyline fill="url(#c)" points="12.115,22.908 18.342,22.908 18.342,32.793 12.115,32.793 12.115,22.908"/><g fill-opacity=".5"><path fill="#513511" d="M12.915 23.781h1.575v2.738h-.017l.359.357h.016v-3.455h-2.275c.127.11.243.231.342.36m1.755 2.74v.178-.178z"/><path fill="#f4a44d" d="M14.473 26.521h-1.575v-2.738h.017c-.099-.131-.216-.25-.342-.355h-.034v3.453h2.292l-.358-.36"/><path fill="#513511" d="M15.933 23.781h1.574v2.738h-.017l.359.357h.016v-3.455h-2.276c.127.11.244.231.344.36m1.753 2.74v.178-.178z"/><path fill="#f4a44d" d="M17.49 26.521h-1.576v-2.738h.019c-.099-.131-.217-.25-.343-.355h-.033v3.453h2.292l-.359-.36"/><path fill="#513511" d="M12.915 29.264h1.575v2.736h-.017l.359.359h.016v-3.455h-2.275c.127.108.243.231.342.36m1.755 2.736v.182-.182z"/><path fill="#f4a44d" d="M14.473 32h-1.575v-2.736h.017c-.099-.129-.216-.252-.342-.359h-.034v3.459h2.292l-.358-.364"/><path fill="#513511" d="M15.933 29.264h1.574v2.736h-.017l.359.359h.016v-3.455h-2.276c.127.108.244.231.344.36m1.753 2.736v.182-.182z"/><path fill="#f4a44d" d="M17.49 32h-1.576v-2.736h.019c-.099-.129-.217-.252-.343-.359h-.033v3.459h2.292l-.359-.364"/></g><polyline fill="#f9f9f9" fill-opacity=".4" points="6.773,18.868 6.773,33.064 34.652,18.6 20.896,8.385 6.866,17.729 6.773,18.868"/><path fill="#990719" d="M38.529 19.315c-.5-.742-.886-1.409-1.625-1.914h-.001c-5.407-3.752-10.82-7.499-16.233-11.246-3.927 2.712-7.846 5.435-11.769 8.152l-3.85 2.667c-.439.304-1.009.604-1.352 1.025-.328.403-.595.882-.884 1.314h4.095c4.604-3.151 9.174-6.353 13.76-9.529 4.584 3.175 9.126 6.427 13.759 9.529h.141v.002h3.959"/><linearGradient x1="188.672" gradientTransform="matrix(1 0 0 -1 -168 -850)" y1="-857.131" x2="188.672" gradientUnits="userSpaceOnUse" y2="-868.511" xlink:type="simple" xlink:actuate="onLoad" id="d" xlink:show="other"><stop stop-color="#f00" offset="0"/><stop stop-color="#a80000" offset="1"/></linearGradient><path fill="url(#d)" d="M6.662 18.511l14.01-9.704c4.67 3.235 9.345 6.461 14.011 9.704h2.341c-.045-.073-.111-.133-.182-.181-5.372-3.756-10.78-7.466-16.168-11.2l-10.63 7.361-2.866 1.986-1.993 1.38c-.259.178-.682.379-.866.652l2.343.002m-1.954-.282l-.088.037.088-.037"/><circle r="7.739" fill-opacity=".4" cx="33.428" cy="31.176"/><path d="M25.221 31.176c.002-4.533 3.674-8.209 8.207-8.21v.941c-4.015 0-7.271 3.254-7.271 7.271 0 4.015 3.256 7.271 7.271 7.271 4.016.001 7.271-3.256 7.271-7.271 0-4.018-3.256-7.271-7.271-7.271v-.939c4.533.002 8.206 3.675 8.209 8.208-.003 4.533-3.676 8.208-8.209 8.209-4.533-.003-8.205-3.677-8.207-8.209z" fill-opacity=".2"/><radialGradient gradientTransform="matrix(1 0 0 -1 -348.004 -851.012)" gradientUnits="userSpaceOnUse" xlink:type="simple" r="7.348" xlink:actuate="onLoad" cx="381.432" id="e" cy="-881.719" xlink:show="other"><stop stop-color="#0082e2" offset="0"/><stop stop-color="#25427c" offset="1"/></radialGradient><circle fill="url(#e)" r="7.348" cx="33.428" cy="30.707"/><linearGradient x1="381.485" gradientTransform="matrix(1 0 0 -1 -348.004 -851.012)" y1="-881.656" x2="381.485" gradientUnits="userSpaceOnUse" y2="-874.606" xlink:type="simple" xlink:actuate="onLoad" id="f" xlink:show="other"><stop stop-color="#5487fc" offset="0"/><stop stop-color="#c2f1ff" offset="1"/></linearGradient><path fill="url(#f)" d="M40.531 30.656c0-3.895-3.157-7.051-7.051-7.051-3.895 0-7.051 3.156-7.051 7.051h14.102z"/><radialGradient gradientTransform="matrix(1 0 0 -1 -736.01 -1656.023)" gradientUnits="userSpaceOnUse" xlink:type="simple" r="3.832" xlink:actuate="onLoad" cx="770.832" id="g" cy="-1686.914" xlink:show="other"><stop stop-color="#0082e2" offset="0"/><stop stop-color="#25427c" offset="1"/></radialGradient><polygon fill="url(#g)" points="30.941,27.145 30.941,34.686 38.725,30.005"/><linearGradient x1="382.496" gradientTransform="matrix(1 0 0 -1 -348.004 -851.012)" y1="-878.866" x2="382.496" gradientUnits="userSpaceOnUse" y2="-884.83" xlink:type="simple" xlink:actuate="onLoad" id="h" xlink:show="other"><stop stop-color="#fff2fc" offset="0"/><stop stop-color="#bdd0e0" offset="1"/></linearGradient><polygon fill="url(#h)" points="31.415,27.866 31.415,33.83 37.57,30.13"/></svg>
